X:1
T:Title
%%score { ( 1 3 ) | 2 }
L:1/8
M:4/4
K:F
V:1 treble nm="Grand Piano"
V:3 treble 
V:2 bass 
V:1
 z4 z2[Q:1/4=110] CC | F2 F2 [EG]2 [EG]2 | A6 cA | G6 z2 |[M:3/4] F6 |[M:1/4] CC | %6
[M:4/4] F2 F2 [EG]2 [EG]2 | A6 cA | G6 z2 | F6 z2 | [Fd]2 [Fd]2 [Fc]2 [FA]2 | [GB]2 [GB]2 A4 | %12
 GA=Bc d2 G2 |[M:3/4] c2- [Ec-][Ec-] [Ec]2 |[M:1/4] AB |[M:4/4] c6 z2 | A2 F4 FA | G6 z2 | %18
[M:3/4] F6 |] %19
V:2
 z4 z2 [F,A,][F,A,] | [F,A,C]2 [F,A,C]2 [C,C]2 [C,C]2 | [F,CF]6 z2 | z2 [C,C][C,C] [C,C]2 z2 | %4
[M:3/4] z2 [F,A,][F,A,] [F,A,]2 |[M:1/4] [F,A,][F,A,] |[M:4/4] [F,A,C]2 [F,A,C]2 [C,C]2 [C,C]2 | %7
 [F,CF]6 z2 | z2 [C,C][C,C] [C,C]2 z2 | z2 [F,A,][F,A,] [F,A,]2 z2 | %10
 [B,,B,]2 [B,,B,]2 [F,A,]2 [F,C]2 | [E,C]2 [E,C]2[K:treble] [F,CF]4 | %12
 [G,=B,F][G,CF][G,DF][G,CF] [G,B,F]2 [G,B,F]2 |[M:3/4][K:bass] [C,C]2 [C,C][C,C] [C,C]2 | %14
[M:1/4] z2 |[M:4/4] z2 [F,F][F,F] [F,F][F,F][F,F][E,C] | [F,CF]2 [F,A,C]4 z2 | %17
 z2 [C,C][C,C] [C,C]2 z2 |[M:3/4] z2 [F,A,][F,B,] [F,A,]2 |] %19
V:3
 x8 | x8 | x8 | z2 EE E2 AG |[M:3/4] z2 CC C2 |[M:1/4] x2 |[M:4/4] x8 | x8 | z2 EE E2 AG | %9
 z2 CC C2 z2 | x8 | x8 | x8 |[M:3/4] E2 z2 z2 |[M:1/4] x2 |[M:4/4] z2 AA A[Bd][Ac][GB] | x8 | %17
 z2 EE E2 AG |[M:3/4] z2 CD C2 |] %19

